X:1
T:The Well-Tempered Clavier Part I Praeludium XIX
T:BWV 864
T:J. S. Bach
%%score { ( 1 2 ) | 3 }
L:1/8
M:4/4
K:A
V:1 treble nm="Harp"
V:2 treble 
V:3 bass 
V:1
 A/B/c/A/ ff f/^d/e z/ e/f/=g/ | a/=g/f/a/ d/c/B/a/ ^g/f/e/g/ c/B/A/=g/ | %2
 f/e/d/f/ B/f/e/d/ c/B/A/B/ c/^d/e/f/ | g/a/b/g/ e/f/g/e/ f/g/a/f/ Bb- | be z a2 ^d z g | %5
 a/g/f/a/ ^d/a/g/f/ e2 z =g | =gf z f fe z e | ed z d dc a2 | g2 =g2 f2 b2 | e2 a4 g2 | %10
 g/f/^e/g/ f4 ^e2 | f/g/a/f/ dd d/^B/c z/ c/d/e/ | f/e/^d/f/ B/A/G/f/ =f/d/c/b/ a/g/^f/^e/ | %13
 f/^e/f/g/ a/4g/4a/4g/4a/4g/4f/ f2 z a | ag z g gf z b | ba z a ag z e | eAdd dc z/ e/d/c/ | %17
 B/c/d/B/ E e2 A z d- | dG z c d/c/B/c/ d/c/d/e/ | A/B/c/A/ ff f/^d/e z/ e/f/=g/ | %20
 a/=g/f/a/ d/c/B/a/ ^g/f/e/g/ c/B/A/=g/ | f/e/d/f/ B/f/e/d/ c/B/A/c/ F/E/D/F/ | %22
 B,/C/D/E/ F/G/A/B/ c/d/e/f/ g/a/b/g/ | a2- a>g !fermata!a4 |] %24
V:2
 z4 z2 z[I:staff +1] E- | EA,[I:staff -1] z[I:staff +1] D- DG,[I:staff -1] z[I:staff +1] C- | %2
 CB,/A,/ A,/4G,/4A,/4G,/4A,/4G,/4G,/ A,[I:staff -1] z z2 | z2 e2 ^d2 =d2 | c2 f2 B2 e2- | %5
 e2 ^d2 eBee | ed z d dc z c | cB z2[I:staff +1] A,/B,/C/A,/ FF | %8
 F/^D/E[I:staff -1] z/[I:staff +1] E/F/=G/[I:staff -1] A/[I:staff +1]^G/F/A/ =D/C/B,/A/ | %9
[I:staff -1] ^G/[I:staff +1]F/E/G/ C/B,/A,/=G/ F/E/D/F/ G,/F/E/D/ | %10
 C2[I:staff -1] z/ =e/d/c/ B/A/G/B/[I:staff +1] C/[I:staff -1]d/c/B/ | %11
 A2 z/ c/B/A/ G>[I:staff +1]G, C2- | %12
 CF,[I:staff -1] z[I:staff +1] B,- B,^E,[I:staff -1] z[I:staff +1] A,- | %13
 A,G,/F,/ ^E,B,[I:staff -1] A,/d/c/B/ A/G/F/E/ | ^D2 z e- e/e/^d/c/ B/A/G/F/ | %15
 E2 z f- f/f/e/d/ c/B/A/G/ | F2 z B BE A2 | G2 =G2 F2 B2 | E2 A4 G2 | A2[I:staff +1] A,2 G,2 =G,2 | %20
 F,2 B,2 E,2 A,2 | D,2- D,/D,/C,/B,,/ A,,/B,,/C,/A,,/ D,/E,/F,/D,/ | %22
 G,/A,/G,/F,/ E,/D/C/B,/ A,/[I:staff -1] z/ z z2 | z/ g/f/e/ d/c/B c4 |] %24
V:3
 A,,2 A,2 G,2 =G,2 | F,2 B,2 E,2 A,2 | D,2 E,2 A,,A,G,F, | E,/F,/G,/E,/ CC C/^A,/B, z/ B,/C/D/ | %4
 E/D/C/E/ A,/G,/F,/E/ ^D/C/B,/D/ G,/F,/E,/=D/ | C/B,/A,/C/ F,/C/B,/A,/ G,/F,/E,/F,/ G,/A,/B,/C/ | %6
 D/E/F/D/ B,/C/D/B,/ C/D/E/C/ A,/B,/C/A,/ | B,/C/D/B,/ G,/A,/B,/G,/ A,2- A,/C/A,/F,/ | %8
 C2 z/ E3/2- EA, z D- | DG, z C DB, z E, | A,G,A,F, G,B,CC, | F,F,, F,2 =F,2 E,2 | %12
 ^D,2 G,2 C,2 F,2 | D,B,, C,2 F,2 z2 | z/ C/B,/A,/ G,/F,/E,/^A,/ B,,2 z2 | %15
 z/ ^D/C/B,/ A,/G,/F,/D/ E,2 z2 | z/ E/D/C/ B,/A,/G,/B,/ A,,/B,,/C,/A,,/ F,F, | %17
 F,/^D,/E, z/ E,/F,/=G,/ A,/G,/F,/A,/ =D,/C,/B,,/A,/ | %18
 G,/F,/E,/G,/ C,/B,,/A,,/=G,/ F,/E,/D,/F,/ B,,/F,/E,/D,/ | %19
 C,/B,,/A,,/C,/ D,/E,/D,/C,/ B,,/A,,/G,,/B,,/ C,E,- | E,A,, z D,2 G,, z C,- | %21
 C,B,,/A,,/ G,,2 A,, z z2 | z4 z/ F,/E,/D,/ C,/B,,/A,,/G,,/ | F,,/E,,/D,, E,,E, !fermata!A,,4 |] %24

